icons/desktop/16/svg/microphone-16.svg

<svg width="16" height="16" viewBox="0 0 16 16" fill="none" xmlns="http://www.w3.org/2000/svg">
<path d="M13.303 7.00781C13.713 7.06648 13.9984 7.44641 13.9397 7.85645C13.5585 10.52 11.4289 12.618 8.75025 12.9521V14.5H11.2502C11.6643 14.5001 12.0002 14.8359 12.0002 15.25C12.0002 15.6641 11.6643 15.9999 11.2502 16H4.75025C4.33603 16 4.00025 15.6642 4.00025 15.25C4.00025 14.8358 4.33603 14.5 4.75025 14.5H7.25025V12.9521C4.57164 12.6182 2.44294 10.5209 2.06079 7.85742C2.002 7.44743 2.28654 7.06761 2.69654 7.00879C3.10653 6.94999 3.48634 7.23453 3.54517 7.64453C3.85797 9.82468 5.73379 11.5 8.00025 11.5C10.2666 11.4999 12.1425 9.82336 12.4543 7.64355C12.5131 7.23368 12.8931 6.94927 13.303 7.00781Z" fill="black"/>
<path fill-rule="evenodd" clip-rule="evenodd" d="M7.99927 0C9.73568 0.000133584 11.2203 1.30091 11.3997 3.0459L11.4417 3.50977C11.4788 3.98162 11.5002 4.479 11.5002 5C11.5002 5.55464 11.4763 6.18785 11.4065 6.88477C11.2323 8.63259 9.78174 9.99988 8.00122 10C6.26471 9.99999 4.78023 8.69916 4.60083 6.9541L4.55884 6.49023C4.52169 6.01838 4.50025 5.52101 4.50025 5C4.50025 4.44536 4.5242 3.81216 4.594 3.11523C4.76817 1.36734 6.21865 0 7.99927 0ZM7.99927 1.5C7.07552 1.5 6.29035 2.16679 6.11353 3.0791L6.08618 3.26465C6.02198 3.90572 6.00025 4.48864 6.00025 5C6.00025 5.63905 6.03544 6.24021 6.09302 6.7998C6.19202 7.76231 7.01604 8.49999 8.00122 8.5C8.98631 8.49987 9.81424 7.74112 9.91431 6.73535L9.95435 6.26562C9.98764 5.80727 10.0002 5.38353 10.0002 5C10.0002 4.36096 9.96505 3.75978 9.90747 3.2002C9.8085 2.23776 8.98435 1.50013 7.99927 1.5Z" fill="black"/>
</svg>

<!-- This Source Code Form is subject to the terms of the Mozilla Public
   - License, v. 2.0. If a copy of the MPL was not distributed with this
   - file, You can obtain one at http://mozilla.org/MPL/2.0/. -->
<svg xmlns="http://www.w3.org/2000/svg" width="16" height="16" fill="context-fill" fill-opacity="context-fill-opacity" viewBox="0 0 16 16">
    <path d="M13.303 7.008a.75.75 0 0 1 .637.848 6 6 0 0 1-5.19 5.096V14.5h2.5a.75.75 0 0 1 0 1.5h-6.5a.75.75 0 0 1 0-1.5h2.5v-1.548a6 6 0 0 1-5.19-5.095.75.75 0 1 1 1.485-.212 4.502 4.502 0 0 0 8.91-.001.75.75 0 0 1 .848-.636" />
    <path fill-rule="evenodd" d="M8 0c1.736 0 3.22 1.3 3.4 3.046l.042.464a19 19 0 0 1-.036 3.375C11.233 8.633 9.782 10 8.002 10c-1.736 0-3.22-1.3-3.4-3.046l-.042-.464a19 19 0 0 1 .035-3.375C4.768 1.367 6.219 0 7.999 0m0 1.5c-.924 0-1.71.667-1.886 1.58l-.028.185A17.4 17.4 0 0 0 6.093 6.8a1.91 1.91 0 0 0 1.908 1.7c.985 0 1.813-.759 1.913-1.765l.04-.47A17.5 17.5 0 0 0 9.907 3.2 1.91 1.91 0 0 0 8 1.5" clip-rule="evenodd" />
</svg>
